tools/download-figma-icons/icons/outlined-large/distance.svg

<svg width="64" height="64" viewBox="0 0 64 64" fill="none" xmlns="http://www.w3.org/2000/svg">
<path fill-rule="evenodd" clip-rule="evenodd" d="M53.0127 23.6142C50.7867 21.8092 44.9997 16.5912 44.9997 11.0992C44.9997 6.63424 48.5877 3.00024 52.9987 3.00024C57.3357 3.00024 60.9997 6.80924 60.9997 11.3182C60.9997 16.7882 55.2417 21.8572 53.0127 23.6142ZM52.9987 0.000244141C46.9347 0.000244141 41.9997 4.97924 41.9997 11.0992C41.9997 19.4142 51.7157 26.4272 52.1287 26.7212C52.3897 26.9072 52.6947 27.0002 52.9987 27.0002C53.2957 27.0002 53.5937 26.9122 53.8497 26.7352C54.2647 26.4492 63.9997 19.6462 63.9997 11.3182C63.9997 5.07724 59.0657 0.000244141 52.9987 0.000244141ZM3 41.3183C3 36.8093 6.664 33.0003 11.001 33.0003C15.337 33.0003 19 36.8093 19 41.3183C19 46.7993 13.22 51.8783 11.001 53.6243C8.782 51.8783 3 46.8003 3 41.3183ZM11.001 57.0003C11.299 57.0003 11.596 56.9123 11.852 56.7353C12.267 56.4493 22 49.6473 22 41.3183C22 35.0773 17.065 30.0003 11.001 30.0003C4.935 30.0003 0 35.0773 0 41.3183C0 49.6473 9.735 56.4503 10.15 56.7353C10.406 56.9123 10.703 57.0003 11.001 57.0003ZM11 36.9999C13.209 36.9999 15 38.7909 15 40.9999C15 43.2089 13.209 44.9999 11 44.9999C8.791 44.9999 7 43.2089 7 40.9999C7 38.7909 8.791 36.9999 11 36.9999ZM53 6.99994C50.791 6.99994 49 8.79094 49 10.9999C49 13.2089 50.791 14.9999 53 14.9999C55.209 14.9999 57 13.2089 57 10.9999C57 8.79094 55.209 6.99994 53 6.99994ZM52.5 33.9999H35C31.691 33.9999 29 36.6909 29 39.9999C29 43.3089 31.691 45.9999 35 45.9999H45C49.963 45.9999 54 50.0369 54 54.9999C54 59.9629 49.963 63.9999 45 63.9999H11.5C10.672 63.9999 10 63.3279 10 62.4999C10 61.6719 10.672 60.9999 11.5 60.9999H45C48.309 60.9999 51 58.3089 51 54.9999C51 51.6909 48.309 48.9999 45 48.9999H35C30.037 48.9999 26 44.9629 26 39.9999C26 35.0369 30.037 30.9999 35 30.9999H52.5C53.328 30.9999 54 31.6719 54 32.4999C54 33.3279 53.328 33.9999 52.5 33.9999Z" fill="black"/>
</svg>

<svg width="64" height="64" viewBox="0 0 64 64" fill="none" xmlns="http://www.w3.org/2000/svg"><path fill-rule="evenodd" clip-rule="evenodd" d="M53.013 23.614C50.787 21.81 45 16.591 45 11.1 45 6.634 48.588 3 52.999 3c4.337 0 8 3.81 8 8.318 0 5.47-5.757 10.54-7.986 12.296ZM52.999 0c-6.064 0-11 4.98-11 11.1 0 8.314 9.717 15.327 10.13 15.621a1.498 1.498 0 0 0 1.72.014C54.266 26.45 64 19.646 64 11.318 64 5.078 59.067 0 53 0ZM3 41.318C3 36.81 6.664 33 11.001 33 15.337 33 19 36.81 19 41.318c0 5.481-5.78 10.56-7.999 12.306C8.782 51.878 3 46.8 3 41.318ZM11.001 57c.298 0 .595-.088.851-.265C12.267 56.45 22 49.647 22 41.318 22 35.078 17.065 30 11.001 30 4.935 30 0 35.077 0 41.318c0 8.33 9.735 15.132 10.15 15.417.256.177.553.265.851.265ZM11 37a4 4 0 1 1 0 8 4 4 0 0 1 0-8ZM53 7a4 4 0 1 0 0 8 4 4 0 0 0 0-8Zm-.5 27H35c-3.309 0-6 2.69-6 6 0 3.309 2.691 6 6 6h10c4.963 0 9 4.037 9 9s-4.037 9-9 9H11.5a1.5 1.5 0 0 1 0-3H45c3.309 0 6-2.691 6-6 0-3.31-2.691-6-6-6H35c-4.963 0-9-4.037-9-9s4.037-9 9-9h17.5a1.5 1.5 0 0 1 0 3Z" fill="currentColor"/></svg>
